src/lib/packages/icons/src/assets/line/phone-outgoing.svg

<svg width="24" height="24" viewBox="0 0 24 24" fill="none" xmlns="http://www.w3.org/2000/svg">
<path d="M20.651 15.106L18.0082 13.53C16.7282 12.767 15.0742 13.138 14.2452 14.377L13.483 15.514C11.322 14.458 9.54416 12.676 8.48716 10.505L9.61802 9.75299C10.859 8.92799 11.2362 7.27699 10.4772 5.99399L8.91417 3.35501C8.42717 2.53301 7.47017 2.10701 6.51817 2.29801C5.07517 2.58701 3.80411 3.47201 3.03111 4.72501C2.26111 5.97301 2.05116 7.43302 2.43516 8.83402C4.12816 14.995 9.01018 19.873 15.1742 21.565C15.6302 21.69 16.0921 21.752 16.5511 21.752C17.5011 21.752 18.4391 21.487 19.2801 20.968C20.5331 20.195 21.4182 18.924 21.7062 17.481C21.8942 16.548 21.47 15.594 20.651 15.106ZM20.2352 17.186C20.0282 18.222 19.392 19.135 18.492 19.691C17.604 20.239 16.5661 20.391 15.5711 20.118C9.91515 18.566 5.43516 14.089 3.88316 8.43601C3.60916 7.44001 3.76019 6.402 4.30919 5.512C4.86519 4.611 5.77718 3.97602 6.83018 3.76502C6.87918 3.75502 6.92915 3.75 6.97715 3.75C7.23915 3.75 7.48715 3.88699 7.62315 4.11899L9.18614 6.758C9.53914 7.353 9.36419 8.11999 8.78819 8.50299L7.12706 9.60801C6.82806 9.807 6.7122 10.19 6.8502 10.521C8.0912 13.495 10.5012 15.912 13.4642 17.15C13.7902 17.287 14.1761 17.174 14.3761 16.876L15.4911 15.211C15.8761 14.636 16.6411 14.462 17.2401 14.817L19.8832 16.393C20.1562 16.557 20.2982 16.875 20.2352 17.186ZM14.4701 9.53C14.1771 9.237 14.1771 8.762 14.4701 8.469L18.19 4.749H16.6681C16.2541 4.749 15.9181 4.413 15.9181 3.999C15.9181 3.585 16.2541 3.249 16.6681 3.249H20.0001C20.0981 3.249 20.1952 3.26901 20.2872 3.30701C20.4702 3.38301 20.6172 3.52902 20.6932 3.71302C20.7312 3.80502 20.7511 3.902 20.7511 4V7.33301C20.7511 7.74701 20.4151 8.08301 20.0011 8.08301C19.5871 8.08301 19.2511 7.74701 19.2511 7.33301V5.81L15.5311 9.53C15.3851 9.676 15.1931 9.75 15.0011 9.75C14.8091 9.75 14.6161 9.677 14.4701 9.53Z" fill="currentColor"/>
</svg>

<svg xmlns="http://www.w3.org/2000/svg" width="24" height="24" fill="none"><path fill="currentColor" d="m20.651 15.106-2.643-1.576a2.801 2.801 0 0 0-3.763.847l-.762 1.137a10.927 10.927 0 0 1-4.996-5.009l1.131-.752a2.8 2.8 0 0 0 .86-3.759L8.913 3.355a2.26 2.26 0 0 0-2.396-1.057A5.345 5.345 0 0 0 3.03 4.725a5.155 5.155 0 0 0-.596 4.109c1.693 6.161 6.575 11.039 12.74 12.731a5.19 5.19 0 0 0 1.376.187 5.18 5.18 0 0 0 2.73-.784 5.34 5.34 0 0 0 2.425-3.487 2.251 2.251 0 0 0-1.055-2.375Zm-.416 2.08a3.84 3.84 0 0 1-1.743 2.505c-.888.548-1.926.7-2.92.427-5.658-1.552-10.138-6.029-11.69-11.682a3.663 3.663 0 0 1 .426-2.924A3.848 3.848 0 0 1 6.83 3.765a.748.748 0 0 1 .793.354l1.563 2.639a1.3 1.3 0 0 1-.398 1.745l-1.66 1.105a.75.75 0 0 0-.278.913 12.412 12.412 0 0 0 6.614 6.629.752.752 0 0 0 .912-.274l1.115-1.665a1.302 1.302 0 0 1 1.75-.394l2.642 1.576a.753.753 0 0 1 .352.793ZM14.47 9.53a.75.75 0 0 1 0-1.061l3.72-3.72h-1.522a.75.75 0 0 1 0-1.5H20a.751.751 0 0 1 .751.751v3.333a.75.75 0 0 1-1.5 0V5.81l-3.72 3.72a.748.748 0 0 1-1.06 0Z"/></svg>
